svg/battery_large_reset.svg

<svg width="24" height="24" viewBox="0 0 24 24" xmlns="http://www.w3.org/2000/svg">
<path fill-rule="evenodd" clip-rule="evenodd" d="M18.4455 4.273C18.5 4.37996 18.5 4.51997 18.5 4.8V6H20C21.11 6 21.99 6.89 21.99 8L22 18C22 19.11 21.11 20 20 20H4C2.89 20 2 19.11 2 18V8C2 6.89 2.89 6 4 6H5.5V4.8C5.5 4.51997 5.5 4.37996 5.5545 4.273C5.60243 4.17892 5.67892 4.10243 5.773 4.0545C5.87996 4 6.01997 4 6.3 4H8.7C8.98003 4 9.12004 4 9.227 4.0545C9.32108 4.10243 9.39757 4.17892 9.4455 4.273C9.5 4.37996 9.5 4.51997 9.5 4.8V6H14.5V4.8C14.5 4.51997 14.5 4.37996 14.5545 4.273C14.6024 4.17892 14.6789 4.10243 14.773 4.0545C14.88 4 15.02 4 15.3 4H17.7C17.98 4 18.12 4 18.227 4.0545C18.3211 4.10243 18.3976 4.17892 18.4455 4.273ZM19.25 12H18V16H10V14.5H16.5V12H15.25L17.25 9.5L19.25 12ZM14 10H6V14H4.75L6.75 16.5L8.75 14H7.5V11.5H14V10Z" />
</svg>

<svg width="24" height="24" viewBox="0 0 24 24" xmlns="http://www.w3.org/2000/svg"><path fill-rule="evenodd" clip-rule="evenodd" d="M18.445 4.273c.055.107.055.247.055.527V6H20c1.11 0 1.99.89 1.99 2L22 18c0 1.11-.89 2-2 2H4c-1.11 0-2-.89-2-2V8c0-1.11.89-2 2-2h1.5V4.8c0-.28 0-.42.054-.527a.5.5 0 0 1 .219-.218C5.88 4 6.02 4 6.3 4h2.4c.28 0 .42 0 .527.054a.5.5 0 0 1 .218.219c.055.107.055.247.055.527V6h5V4.8c0-.28 0-.42.055-.527a.5.5 0 0 1 .218-.218C14.88 4 15.02 4 15.3 4h2.4c.28 0 .42 0 .527.054a.5.5 0 0 1 .218.219zM19.25 12H18v4h-8v-1.5h6.5V12h-1.25l2-2.5 2 2.5zM14 10H6v4H4.75l2 2.5 2-2.5H7.5v-2.5H14V10z"/></svg>
